X: 18
T: Monaghan, The
Z: swisspiper
S: https://thesession.org/tunes/67#setting52106
R: jig
M: 6/8
L: 1/8
K: Edor
|:BGE JF2E|BGE FGA|BGE J~F3|AFD FGA|
BGE JF2E|BGE FGA|dcB ABG|FDF AGF:|
|:EGB efg|fed edB|EGB dBG|FDF AGF|
EGB efg|fed edB|dcB ABG|FDF AGF:|
|:Jg2e efe|geg bge| Jg2e efg|fdf agf|
Jg2e efe|geg bge|dcB ABA|FDF AGF:|

